X:1
T:Toss The Feathers
R:reel
M:4/4
L:1/8
K:Edor
|:EB~B2 dB~B2|EB~B2 ADFA|BE~E2 BABc|1 d2fe dBAF:|2 d2fe dBAd|]
|BeeB efge|fede feeg|febe febe|fade feed|
|BeeB efge|fede fgaf|b2bf a2af|e2ee dBAF|